public/assets/github-icon-navbar.svg

<svg width="16" height="16" viewBox="0 0 16 16" fill="none" xmlns="http://www.w3.org/2000/svg">
    <path
        d="M8 0C3.58036 0 0 3.67096 0 8.20243C0 11.8316 2.29018 14.8979 5.46982 15.9843C5.86982 16.0559 6.01964 15.8106 6.01964 15.5951C6.01964 15.3997 6.01018 14.7539 6.01018 14.0672C4 14.4467 3.48 13.5646 3.32 13.1038C3.22982 12.8674 2.84 12.1396 2.50036 11.945C2.22036 11.7906 1.81964 11.4118 2.49018 11.4014C3.12 11.3909 3.57018 11.9957 3.72 12.2425C4.44 13.4826 5.58982 13.1343 6.05018 12.9188C6.12 12.3857 6.33018 12.027 6.56 11.8219C4.77964 11.6169 2.92 10.9092 2.92 7.77143C2.92 6.8796 3.22982 6.14139 3.74036 5.56721C3.65964 5.36215 3.37964 4.52178 3.82036 3.39357C3.82036 3.39357 4.49018 3.17882 6.01964 4.23469C6.67089 4.04943 7.34379 3.95635 8.01964 3.95805C8.70036 3.95805 9.38036 4.04977 10.0196 4.23469C11.5498 3.16838 12.2196 3.39357 12.2196 3.39357C12.6596 4.52178 12.3804 5.36215 12.3004 5.56721C12.8102 6.14139 13.12 6.86991 13.12 7.77143C13.12 10.9197 11.2502 11.6169 9.46982 11.8219C9.76 12.0785 10.0102 12.5706 10.0102 13.3394C10.0102 14.4363 10 15.3184 10 15.5951C10 15.8106 10.1498 16.0663 10.5498 15.9843C13.7098 14.8979 16 11.8219 16 8.20243C16 3.67096 12.4204 0 8 0Z"
        fill="white"></path>
</svg>

<svg xmlns="http://www.w3.org/2000/svg" width="16" height="16" fill="none" viewBox="0 0 16 16"><path fill="#fff" d="M8 0C3.58 0 0 3.671 0 8.202c0 3.63 2.29 6.696 5.47 7.782.4.072.55-.173.55-.389 0-.195-.01-.841-.01-1.528-2.01.38-2.53-.502-2.69-.963-.09-.237-.48-.964-.82-1.159-.28-.154-.68-.533-.01-.544.63-.01 1.08.595 1.23.841.72 1.24 1.87.892 2.33.677.07-.533.28-.892.51-1.097-1.78-.205-3.64-.913-3.64-4.05 0-.892.31-1.63.82-2.205-.08-.205-.36-1.045.08-2.173 0 0 .67-.215 2.2.84a7.2 7.2 0 0 1 2-.276c.68 0 1.36.092 2 .277 1.53-1.067 2.2-.841 2.2-.841.44 1.128.16 1.968.08 2.173.51.574.82 1.303.82 2.204 0 3.149-1.87 3.846-3.65 4.05.29.258.54.75.54 1.518 0 1.097-.01 1.98-.01 2.256 0 .216.15.471.55.39C13.71 14.897 16 11.821 16 8.201 16 3.671 12.42 0 8 0"/></svg>
